assets/images/wp-mail-smtp.svg

<svg width="88" height="89" viewBox="0 0 88 89" fill="none" xmlns="http://www.w3.org/2000/svg">
<g filter="url(#filter0_d_14_191)">
<rect x="4" y="2.5" width="80" height="80" rx="4" fill="white"/>
<path d="M36.8592 20.4144C34.8716 21.4481 33.1319 22.9006 31.7601 24.6718C30.3883 26.443 29.4171 28.4907 28.9134 30.6736C25.171 33.7771 22.4768 37.9593 21.198 42.65C19.9193 47.3407 20.1184 52.3116 21.768 56.885C23.4176 61.4584 26.4375 65.4118 30.4161 68.2062C34.3946 71.0006 39.1382 72.5 44 72.5C48.8619 72.5 53.6054 71.0006 57.584 68.2062C61.5625 65.4118 64.5825 61.4584 66.2321 56.885C67.8817 52.3116 68.0807 47.3407 66.802 42.65C65.5233 37.9593 62.8291 33.7771 59.0867 30.6736C58.5082 28.2329 57.3456 25.9692 55.6989 24.0771C54.0522 22.185 51.9706 20.7212 49.633 19.8114C49.5524 19.2124 49.3144 18.6455 48.9434 18.1685C48.5723 17.6914 48.0815 17.3212 47.5208 17.0955C47.5137 16.0158 47.1291 14.9726 46.4337 14.1467C45.7383 13.3207 44.7759 12.764 43.7132 12.573C42.6505 12.382 41.5545 12.5687 40.615 13.1007C39.6755 13.6328 38.9516 14.4768 38.5689 15.4864C37.8218 17.0626 37.2486 18.7155 36.8592 20.4158V20.4144Z" fill="#395360"/>
<path d="M50.336 38.4183H38.2671V52.4988H50.336V38.4183Z" fill="#FBAA6F"/>
<path d="M46.1116 45.6598H46.011C45.7043 45.4331 45.5001 45.0938 45.4435 44.7165C45.3869 44.3393 45.4825 43.955 45.7092 43.6482C45.9359 43.3414 46.2752 43.1373 46.6525 43.0807C47.0297 43.0241 47.414 43.1196 47.7208 43.3464C47.2284 43.4457 46.7949 43.7348 46.5141 44.1513C46.3382 44.3565 46.2106 44.5986 46.1405 44.8596C46.0704 45.1206 46.0596 45.3941 46.1089 45.6598H46.1116ZM41.5874 45.6598C41.6368 45.3941 41.626 45.1206 41.5559 44.8596C41.4858 44.5986 41.3581 44.3565 41.1823 44.1513C40.9014 43.7348 40.468 43.4457 39.9756 43.3464C40.2824 43.1196 40.6666 43.0241 41.0439 43.0807C41.4211 43.1373 41.7604 43.3414 41.9872 43.6482C42.2139 43.955 42.3095 44.3393 42.2529 44.7165C42.1963 45.0938 41.9921 45.4331 41.6853 45.6598H41.5874ZM48.9275 42.4415H49.4305L48.3251 47.269L46.2129 53.7062H41.8913L38.6689 48.2751L39.775 45.0568L41.8872 47.7727C42.3903 48.2758 44.6031 48.2758 45.7092 47.2696C46.9532 45.7812 48.0322 44.1624 48.9275 42.4415Z" fill="#DC7F3C"/>
<path d="M29.9189 41.4352H35.2494V32.3834H31.1256C31.4366 30.2082 32.2907 28.1464 33.6091 26.3886C34.9276 24.6308 36.6677 23.2336 38.6689 22.326C39.4063 18.9736 40.3116 16.7275 41.3848 15.5876L41.5874 15.3851H41.688C42.1342 14.9936 42.7138 14.7886 43.3069 14.8126C43.9 14.8365 44.4613 15.0875 44.8745 15.5136C45.2877 15.9398 45.5213 16.5085 45.527 17.102C45.5326 17.6956 45.3099 18.2687 44.9049 18.7026L44.6031 19.0045L43.1952 20.4124C44.0023 19.5844 45.0654 19.0533 46.2122 18.9052L46.9165 19.1078C47.1227 19.2276 47.2922 19.4015 47.4067 19.6108C47.5211 19.8201 47.5761 20.0566 47.5658 20.2949C47.5554 20.5332 47.4801 20.7641 47.3479 20.9626C47.2157 21.1611 47.0317 21.3197 46.8159 21.4212C49.4407 21.9978 51.8241 23.3691 53.6417 25.3486C55.4593 27.3281 56.6228 29.8196 56.9738 32.484V33.3895H53.3531V41.4352H58.1805L59.9909 54.9127C55.6998 57.5948 50.3693 58.9359 43.9994 58.9359C37.6294 58.9359 32.3325 57.5948 28.1085 54.9127L29.9189 41.4352ZM45.1061 50.8888C47.7212 46.5978 49.0287 44.0498 49.0287 43.2449C49.0287 41.0321 45.8104 39.1211 44.0993 39.1211C42.3882 39.1211 39.1699 40.9315 39.1699 43.2449C39.1699 45.5583 40.4772 46.6644 42.9919 50.8888C43.1027 51.0816 43.2647 51.24 43.4599 51.3465C43.6551 51.453 43.8759 51.5036 44.098 51.4925C44.3053 51.4962 44.5095 51.4416 44.6873 51.3349C44.8651 51.2281 45.0093 51.0736 45.1034 50.8888H45.1061Z" fill="#BDCFC8"/>
<path d="M60.192 61.3493C58.3203 63.8667 55.8858 65.9114 53.0829 67.3201C50.2801 68.7289 47.1866 69.4626 44.0496 69.4626C40.9127 69.4626 37.8192 68.7289 35.0163 67.3201C32.2135 65.9114 29.7789 63.8667 27.9072 61.3493L28.7121 55.2139L29.7176 55.4164C30.3997 55.4234 31.0612 55.1825 31.5791 54.7385C32.097 54.2945 32.4361 53.6776 32.5334 53.0024V54.2091C32.5334 54.9693 32.8354 55.6984 33.373 56.236C33.9106 56.7735 34.6397 57.0755 35.3999 57.0755C36.1601 57.0755 36.8892 56.7735 37.4268 56.236C37.9644 55.6984 38.2664 54.9693 38.2664 54.2091V55.8175C38.2664 56.5778 38.5684 57.3069 39.1059 57.8444C39.6435 58.382 40.3726 58.684 41.1328 58.684C41.8931 58.684 42.6222 58.382 43.1597 57.8444C43.6973 57.3069 43.9993 56.5778 43.9993 55.8175C43.9993 56.5778 44.3013 57.3069 44.8389 57.8444C45.3765 58.382 46.1056 58.684 46.8658 58.684C47.626 58.684 48.3551 58.382 48.8927 57.8444C49.4303 57.3069 49.7323 56.5778 49.7323 55.8175V54.2084C49.7323 54.9686 50.0343 55.6977 50.5718 56.2353C51.1094 56.7729 51.8385 57.0749 52.5987 57.0749C53.359 57.0749 54.0881 56.7729 54.6256 56.2353C55.1632 55.6977 55.4652 54.9686 55.4652 54.2084V53.0017C55.5398 53.6952 55.8691 54.3363 56.3893 54.8008C56.9095 55.2654 57.5836 55.5204 58.281 55.5164L59.2865 55.3138L60.0914 61.4492L60.192 61.3493Z" fill="#809EB0"/>
<path d="M28.511 57.2261L28.8129 55.3151L29.8183 55.5177C30.5005 55.5247 31.1619 55.2838 31.6798 54.8398C32.1977 54.3958 32.5368 53.7789 32.6341 53.1037V54.3104C32.6341 55.0706 32.9361 55.7997 33.4737 56.3373C34.0113 56.8748 34.7404 57.1768 35.5006 57.1768C36.2609 57.1768 36.99 56.8748 37.5275 56.3373C38.0651 55.7997 38.3671 55.0706 38.3671 54.3104V55.9195C38.3671 56.6797 38.6691 57.4088 39.2067 57.9464C39.7442 58.484 40.4733 58.786 41.2336 58.786C41.9938 58.786 42.7229 58.484 43.2605 57.9464C43.798 57.4088 44.1 56.6797 44.1 55.9195C44.1 56.6797 44.402 57.4088 44.9396 57.9464C45.4772 58.484 46.2063 58.786 46.9665 58.786C47.7267 58.786 48.4558 58.484 48.9934 57.9464C49.531 57.4088 49.833 56.6797 49.833 55.9195V54.2084C49.833 54.9686 50.135 55.6977 50.6726 56.2353C51.2101 56.7729 51.9392 57.0749 52.6995 57.0749C53.4597 57.0749 54.1888 56.7729 54.7264 56.2353C55.2639 55.6977 55.5659 54.9686 55.5659 54.2084V53.0017C55.6384 53.6783 55.9534 54.3057 56.4527 54.768C56.9519 55.2302 57.6017 55.4961 58.2818 55.5164L59.2873 55.3138L59.5891 57.2248C59.1877 57.4404 58.7399 57.5553 58.2843 57.5597C57.8287 57.5642 57.3788 57.4579 56.9732 57.2502C56.5677 57.0425 56.2186 56.7395 55.956 56.3671C55.6933 55.9948 55.525 55.5643 55.4653 55.1126V56.3193C55.4653 57.0795 55.1633 57.8086 54.6257 58.3462C54.0882 58.8837 53.3591 59.1857 52.5988 59.1857C51.8386 59.1857 51.1095 58.8837 50.5719 58.3462C50.0344 57.8086 49.7324 57.0795 49.7324 56.3193V57.9311C49.7324 58.6913 49.4304 59.4204 48.8928 59.958C48.3552 60.4956 47.6261 60.7976 46.8659 60.7976C46.1057 60.7976 45.3766 60.4956 44.839 59.958C44.3014 59.4204 43.9994 58.6913 43.9994 57.9311C43.9994 58.6913 43.6974 59.4204 43.1599 59.958C42.6223 60.4956 41.8932 60.7976 41.1329 60.7976C40.3727 60.7976 39.6436 60.4956 39.106 59.958C38.5685 59.4204 38.2665 58.6913 38.2665 57.9311V56.22C38.2665 56.9802 37.9645 57.7093 37.4269 58.2469C36.8893 58.7845 36.1602 59.0865 35.4 59.0865C34.6398 59.0865 33.9107 58.7845 33.3731 58.2469C32.8355 57.7093 32.5335 56.9802 32.5335 56.22V55.0133C32.4739 55.4649 32.3055 55.8953 32.0429 56.2676C31.7803 56.6399 31.4313 56.9428 31.0258 57.1505C30.6204 57.3583 30.1706 57.4645 29.715 57.4601C29.2595 57.4558 28.8118 57.3409 28.4104 57.1255L28.511 57.2261Z" fill="#738E9E"/>
<path d="M58.0806 34.7975C57.0751 31.881 55.0635 30.0706 53.3538 30.2732C51.644 30.4758 50.6379 34.0952 51.0403 38.3196C51.4428 42.544 52.7501 45.9635 54.9629 45.6617C57.1757 45.3599 58.9861 41.7391 58.6842 37.6153C58.5836 38.822 58.1812 39.9287 57.2763 40.0294C56.3715 40.13 55.8684 38.8227 55.6672 37.2135C55.466 35.6044 55.5666 34.1965 56.6727 34.0959C56.9492 34.072 57.2269 34.1248 57.4753 34.2486C57.7237 34.3724 57.9331 34.5623 58.0806 34.7975Z" fill="#86A196"/>
<path d="M57.2756 34.1939C56.6719 32.9873 55.7671 32.283 54.8616 32.283C53.956 32.283 52.9506 34.8982 53.2524 37.8147C53.5543 40.7311 54.4591 43.0446 55.9683 42.8433C57.4775 42.6421 57.8793 41.3348 58.1811 39.4238C58.088 39.5883 57.9576 39.7287 57.8003 39.8335C57.643 39.9384 57.4633 40.0048 57.2756 40.0275C56.1695 40.1281 55.8677 38.8208 55.6665 37.2117C55.4652 35.6025 55.5659 34.1946 56.6719 34.094L57.2756 34.1939Z" fill="white"/>
<path d="M29.7183 34.7975C30.7238 31.881 32.7354 30.0706 34.4451 30.2732C36.1549 30.4758 37.161 34.0952 36.7586 38.3196C36.3561 42.544 35.0461 45.9615 32.836 45.6624C30.6259 45.3632 28.8128 41.7398 29.1146 37.616C29.2152 38.8227 29.6177 39.9294 30.5225 40.03C31.4274 40.1306 31.9305 38.8233 32.1317 37.2142C32.3329 35.6051 32.2323 34.1971 31.1262 34.0965C30.8498 34.0726 30.5721 34.1253 30.3237 34.249C30.0753 34.3727 29.8658 34.5624 29.7183 34.7975Z" fill="#86A196"/>
<path d="M30.5226 34.1939C31.1262 32.9873 32.0311 32.283 32.9366 32.283C33.8421 32.283 34.8476 34.8982 34.5458 37.8147C34.2439 40.7311 33.3391 43.0446 31.8299 42.8433C30.3207 42.6421 29.9202 41.3348 29.7177 39.4238C29.8108 39.5883 29.9412 39.7287 30.0985 39.8335C30.2558 39.9384 30.4355 40.0048 30.6232 40.0275C31.7292 40.1281 32.0311 38.8208 32.2323 37.2117C32.4335 35.6025 32.3329 34.1946 31.2269 34.094L30.5226 34.1939Z" fill="white"/>
<path d="M39.172 41.0333C39.1183 40.8019 39.0846 40.5663 39.0714 40.329C39.0714 37.8144 40.2781 34.9985 44.0008 34.9985C47.7235 34.9985 48.9302 37.8144 48.9302 40.329C48.938 40.667 48.9042 41.0047 48.8296 41.3345C48.0247 40.0272 46.5161 39.1217 44.0022 39.1217C41.4882 39.1217 40.0769 39.9279 39.172 41.0333Z" fill="#F4F8FF"/>
<path d="M46.8172 21.5212H43.5976L47.5202 20.3165C47.5177 20.5611 47.4516 20.8008 47.3283 21.012C47.2051 21.2233 47.0289 21.3988 46.8172 21.5212ZM43.1965 20.5157L41.8878 21.5212C42.7134 20.3711 43.3894 19.1206 43.8994 17.7998C44.1763 16.9576 44.279 16.0678 44.2013 15.1846C44.5901 15.3851 44.9172 15.6876 45.1474 16.0596C45.3777 16.4317 45.5025 16.8593 45.5086 17.2968C45.4333 17.881 45.147 18.4175 44.7036 18.8053L43.1965 20.5157Z" fill="#86A196"/>
</g>
<defs>
<filter id="filter0_d_14_191" x="0" y="0.5" width="88" height="88" filterUnits="userSpaceOnUse" color-interpolation-filters="sRGB">
<feFlood flood-opacity="0" result="BackgroundImageFix"/>
<feColorMatrix in="SourceAlpha" type="matrix" values="0 0 0 0 0 0 0 0 0 0 0 0 0 0 0 0 0 0 127 0" result="hardAlpha"/>
<feOffset dy="2"/>
<feGaussianBlur stdDeviation="2"/>
<feComposite in2="hardAlpha" operator="out"/>
<feColorMatrix type="matrix" values="0 0 0 0 0 0 0 0 0 0 0 0 0 0 0 0 0 0 0.07 0"/>
<feBlend mode="normal" in2="BackgroundImageFix" result="effect1_dropShadow_14_191"/>
<feBlend mode="normal" in="SourceGraphic" in2="effect1_dropShadow_14_191" result="shape"/>
</filter>
</defs>
</svg>

<svg width="88" height="89" fill="none" xmlns="http://www.w3.org/2000/svg"><g filter="url(#a)"><rect x="4" y="2.5" width="80" height="80" rx="4" fill="#fff"/><path d="M36.86 20.414a15.49 15.49 0 0 0-7.947 10.26 23.635 23.635 0 1 0 30.174 0 15.49 15.49 0 0 0-9.454-10.863 3.419 3.419 0 0 0-2.112-2.715 4.626 4.626 0 0 0-8.952-1.61 24.037 24.037 0 0 0-1.71 4.93v-.002Z" fill="#395360"/><path d="M50.336 38.418H38.267v14.08h12.069v-14.08Z" fill="#FBAA6F"/><path d="M46.112 45.66h-.101a1.438 1.438 0 0 1 1.71-2.314 1.91 1.91 0 0 0-1.207.805 1.81 1.81 0 0 0-.405 1.509h.003Zm-4.525 0a1.81 1.81 0 0 0-.405-1.509 1.911 1.911 0 0 0-1.206-.805 1.438 1.438 0 1 1 1.71 2.314h-.099Zm7.34-3.218h.504l-1.106 4.827-2.112 6.437H41.89l-3.222-5.43 1.106-3.22 2.112 2.717c.503.503 2.716.503 3.822-.503a26.856 26.856 0 0 0 3.218-4.829Z" fill="#DC7F3C"/><path d="M29.919 41.435h5.33v-9.052h-4.123a13.075 13.075 0 0 1 7.543-10.057c.737-3.352 1.643-5.599 2.716-6.738l.202-.203h.101a2.313 2.313 0 0 1 3.217 3.318l-.302.302-1.408 1.407a5.13 5.13 0 0 1 3.017-1.507l.704.203a1.307 1.307 0 0 1-.1 2.313 13.075 13.075 0 0 1 10.158 11.063v.905h-3.62v8.046h4.827l1.81 13.478c-4.291 2.682-9.622 4.023-15.992 4.023-6.37 0-11.666-1.341-15.89-4.023l1.81-13.478Zm15.187 9.454c2.615-4.291 3.923-6.84 3.923-7.644 0-2.213-3.219-4.124-4.93-4.124-1.71 0-4.93 1.81-4.93 4.124 0 2.313 1.308 3.42 3.823 7.644a1.206 1.206 0 0 0 1.106.603 1.107 1.107 0 0 0 1.005-.603h.003Z" fill="#BDCFC8"/><path d="M60.192 61.35a20.114 20.114 0 0 1-32.285 0l.805-6.136 1.006.202a2.816 2.816 0 0 0 2.815-2.414v1.207a2.866 2.866 0 0 0 5.733 0v1.608a2.866 2.866 0 1 0 5.733 0 2.866 2.866 0 1 0 5.733 0v-1.609a2.867 2.867 0 0 0 5.733 0v-1.206a2.816 2.816 0 0 0 2.816 2.514l1.005-.202.805 6.135.101-.1Z" fill="#809EB0"/><path d="m28.511 57.226.302-1.91 1.005.202a2.816 2.816 0 0 0 2.816-2.414v1.206a2.866 2.866 0 0 0 5.733 0v1.61a2.866 2.866 0 0 0 5.733 0 2.866 2.866 0 0 0 5.733 0v-1.712a2.866 2.866 0 0 0 5.733 0v-1.206a2.816 2.816 0 0 0 2.716 2.514l1.005-.202.302 1.91a2.815 2.815 0 0 1-4.124-2.111v1.206a2.866 2.866 0 0 1-5.733 0v1.612a2.866 2.866 0 0 1-5.733 0 2.867 2.867 0 0 1-5.733 0V56.22a2.866 2.866 0 0 1-5.733 0v-1.207a2.815 2.815 0 0 1-4.123 2.113l.101.1Z" fill="#738E9E"/><path d="M58.08 34.797c-1.005-2.916-3.017-4.726-4.726-4.524-1.71.203-2.716 3.822-2.314 8.047.403 4.224 1.71 7.644 3.923 7.342 2.213-.302 4.023-3.923 3.721-8.047-.1 1.207-.503 2.314-1.408 2.414-.905.101-1.408-1.206-1.609-2.816-.201-1.609-.1-3.017 1.006-3.117a1.508 1.508 0 0 1 1.408.702Z" fill="#86A196"/><path d="M57.276 34.194c-.604-1.207-1.509-1.911-2.414-1.911-.906 0-1.911 2.615-1.61 5.532.302 2.916 1.207 5.23 2.716 5.028 1.51-.2 1.911-1.508 2.213-3.42a1.206 1.206 0 0 1-.905.605c-1.107.1-1.408-1.207-1.61-2.816-.2-1.61-.1-3.017 1.006-3.118l.604.1Z" fill="#fff"/><path d="M29.718 34.797c1.006-2.916 3.017-4.726 4.727-4.524 1.71.203 2.716 3.822 2.314 8.047-.403 4.224-1.713 7.642-3.923 7.342-2.21-.299-4.023-3.922-3.721-8.046.1 1.207.503 2.313 1.408 2.414.904.1 1.407-1.207 1.609-2.816.2-1.609.1-3.017-1.006-3.117a1.509 1.509 0 0 0-1.408.7Z" fill="#86A196"/><path d="M30.523 34.194c.603-1.207 1.508-1.911 2.414-1.911.905 0 1.91 2.615 1.609 5.532-.302 2.916-1.207 5.23-2.716 5.028-1.51-.2-1.91-1.508-2.112-3.42a1.206 1.206 0 0 0 .905.605c1.106.1 1.408-1.207 1.61-2.816.2-1.61.1-3.017-1.006-3.118l-.704.1Z" fill="#fff"/><path d="M39.172 41.033a4.13 4.13 0 0 1-.1-.704c0-2.515 1.206-5.33 4.929-5.33 3.723 0 4.93 2.815 4.93 5.33.007.338-.027.676-.101 1.005-.805-1.307-2.314-2.212-4.828-2.212-2.514 0-3.925.806-4.83 1.911Z" fill="#F4F8FF"/><path d="M46.817 21.521h-3.22l3.923-1.204a1.408 1.408 0 0 1-.703 1.204Zm-3.62-1.005-1.31 1.005c.826-1.15 1.502-2.4 2.012-3.721a6.53 6.53 0 0 0 .302-2.615 2.414 2.414 0 0 1 1.308 2.112 2.414 2.414 0 0 1-.805 1.508l-1.508 1.71Z" fill="#86A196"/></g><defs><filter id="a" x="0" y=".5" width="88" height="88" filterUnits="userSpaceOnUse" color-interpolation-filters="sRGB"><feFlood flood-opacity="0" result="BackgroundImageFix"/><feColorMatrix in="SourceAlpha" values="0 0 0 0 0 0 0 0 0 0 0 0 0 0 0 0 0 0 127 0" result="hardAlpha"/><feOffset dy="2"/><feGaussianBlur stdDeviation="2"/><feComposite in2="hardAlpha" operator="out"/><feColorMatrix values="0 0 0 0 0 0 0 0 0 0 0 0 0 0 0 0 0 0 0.07 0"/><feBlend in2="BackgroundImageFix" result="effect1_dropShadow_14_191"/><feBlend in="SourceGraphic" in2="effect1_dropShadow_14_191" result="shape"/></filter></defs></svg>
